"initializing synth modules".postln;

"pitch_operations.scd".loadRelative;
"envelopes.scd".loadRelative;
"oscillators.scd".loadRelative;

"initializing drum modules".postln;
"drums.scd".loadRelative;

"initializing fx and filter modules".postln;
"fx.scd".loadRelative;
"filter.scd".loadRelative;
"modSources.scd".loadRelative;

"modules loaded".postln;
